Origami/24x24/apps/vmware-workstation.svg

<svg width="24" height="24" version="1" xmlns="http://www.w3.org/2000/svg">
 <rect transform="matrix(0,-1,-1,0,0,0)" x="-22" y="-22" width="20" height="20" rx="1" ry="1" style="fill:#407ec2"/>
 <path d="m3 2c-0.554 0-1 0.446-1 1v0.5c0-0.554 0.446-1 1-1h18c0.554 0 1 0.446 1 1v-0.5c0-0.554-0.446-1-1-1h-18z" style="fill:#ffffff;opacity:.2"/>
 <path d="m3 22.5c-0.554 0-1-0.446-1-1v-0.5c0 0.554 0.446 1 1 1h18c0.554 0 1-0.446 1-1v0.5c0 0.554-0.446 1-1 1h-18z" style="opacity:.2"/>
 <path d="m7.5 7.5v0.5h9v-0.5z" style="opacity:.2"/>
 <path d="m5.252 8c-0.6938 0-1.252 0.5582-1.252 1.252v9.496c0 0.694 0.5582 1.252 1.252 1.252h9.4961c0.694 0 1.252-0.558 1.252-1.252v-9.496c0-0.6938-0.558-1.252-1.252-1.252h-9.496zm1.748 3h6v6h-6v-6z" style="fill:#f7870d"/>
 <path d="m7 15.748047v0.5c0 0.694 0.5581531 1.251953 1.2519531 1.251953h9.4960939c0.694 0 1.251953-0.557953 1.251953-1.251953v-0.5c0 0.694-0.557953 1.251953-1.251953 1.251953h-9.4960939c-0.6938 0-1.2519531-0.557953-1.2519531-1.251953z" style="opacity:.2"/>
 <path d="m8.252 5c-0.6938 0-1.252 0.5582-1.252 1.252v1.748h9v6h-6v-3h-3v4.748c0 0.694 0.5582 1.252 1.252 1.252h9.4961c0.694 0 1.252-0.558 1.252-1.252v-9.496c0-0.6938-0.558-1.252-1.252-1.252h-9.4961z" style="fill:#ffe270"/>
 <path d="m7 11v0.5h6v-0.5h-6zm-3 7.748047v0.5c0 0.694 0.5581531 1.251953 1.2519531 1.251953h9.4960939c0.694 0 1.251953-0.557953 1.251953-1.251953v-0.5c0 0.694-0.557953 1.251953-1.251953 1.251953h-9.4960939c-0.6938 0-1.2519531-0.557953-1.2519531-1.251953z" style="opacity:.2"/>
</svg>

<svg xmlns="http://www.w3.org/2000/svg" width="24" height="24" version="1">
 <rect style="fill:#407ec2" width="20" height="20" x="-22" y="-22" rx="1" ry="1" transform="matrix(0,-1,-1,0,0,0)"/>
 <path style="opacity:0.2;fill:#ffffff" d="M 3,2 C 2.446,2 2,2.446 2,3 l 0,0.5 c 0,-0.554 0.446,-1 1,-1 l 18,0 c 0.554,0 1,0.446 1,1 L 22,3 C 22,2.446 21.554,2 21,2 L 3,2 Z"/>
 <path style="opacity:0.2" d="m 3,22.5 c -0.554,0 -1,-0.446 -1,-1 L 2,21 c 0,0.554 0.446,1 1,1 l 18,0 c 0.554,0 1,-0.446 1,-1 l 0,0.5 c 0,0.554 -0.446,1 -1,1 l -18,0 z"/>
 <path style="opacity:0.2" d="m 7.5,7.5 0,0.5 9,0 0,-0.5 z"/>
 <path d="M 5.252,8 C 4.5582,8 4,8.5582 4,9.252 l 0,9.496 C 4,19.442 4.5582,20 5.252,20 l 9.4961,0 c 0.694,0 1.252,-0.558 1.252,-1.252 l 0,-9.496 C 16.0001,8.5582 15.4421,8 14.7481,8 L 5.2521,8 Z M 7,11 l 6,0 0,6 -6,0 0,-6 z" style="fill:#f7870d"/>
 <path style="opacity:0.2" d="m 7,15.748047 0,0.5 C 7,16.942047 7.5581531,17.5 8.2519531,17.5 l 9.4960939,0 C 18.442047,17.5 19,16.942047 19,16.248047 l 0,-0.5 C 19,16.442047 18.442047,17 17.748047,17 L 8.2519531,17 C 7.5581531,17 7,16.442047 7,15.748047 Z"/>
 <path d="M 8.252,5 C 7.5582,5 7,5.5582 7,6.252 L 7,8 l 9,0 0,6 -6,0 0,-3 -3,0 0,4.748 C 7,16.442 7.5582,17 8.252,17 l 9.4961,0 c 0.694,0 1.252,-0.558 1.252,-1.252 l 0,-9.496 C 19.0001,5.5582 18.4421,5 17.7481,5 L 8.252,5 Z" style="fill:#ffe270"/>
 <path style="opacity:0.2" d="M 7 11 L 7 11.5 L 13 11.5 L 13 11 L 7 11 z M 4 18.748047 L 4 19.248047 C 4 19.942047 4.5581531 20.5 5.2519531 20.5 L 14.748047 20.5 C 15.442047 20.5 16 19.942047 16 19.248047 L 16 18.748047 C 16 19.442047 15.442047 20 14.748047 20 L 5.2519531 20 C 4.5581531 20 4 19.442047 4 18.748047 z"/>
</svg>
